src/assets/ball.svg

<svg width="42" height="42" viewBox="0 0 42 42" fill="none" xmlns="http://www.w3.org/2000/svg">
<path d="M25.138 15.4019V13.1455H24.5299C24.5355 13.0685 24.5383 12.9915 24.5383 12.9131C24.5383 11.1445 23.2349 9.6754 21.5386 9.41453V8.48213H22.0197C22.4028 8.8662 22.8438 9.22553 23.3296 9.5424C24.3614 10.2177 26.4778 10.7716 27.3957 9.33473C27.2706 9.09487 27.0368 8.72433 26.8268 8.48587C26.7321 8.78453 25.0404 10.0949 22.2003 7.077C22.2003 7.077 26.5487 6.125 27.5782 8.95113C27.679 8.53533 27.8437 8.07473 28.0052 7.623C28.2506 6.93887 28.5036 6.23187 28.5647 5.5944C28.6688 4.49213 28.1414 3.94847 27.6799 3.68573C27.349 3.49767 26.9617 3.40247 26.5268 3.40247C25.5636 3.40247 24.3372 3.8752 22.8807 4.80853C22.3394 5.15527 21.8704 5.49967 21.539 5.75493V0H20.4606V5.7554C20.1288 5.49967 19.6598 5.1562 19.1175 4.809C17.662 3.87567 16.4351 3.40247 15.4719 3.40247C15.0374 3.40247 14.6496 3.49767 14.3183 3.68573C13.8577 3.948 13.3299 4.4926 13.434 5.5944C13.4951 6.23187 13.748 6.93933 13.994 7.62347C14.1559 8.0752 14.3206 8.5358 14.4214 8.9516C15.4495 6.125 19.7988 7.07747 19.7988 7.07747C16.9592 10.0954 15.2675 8.785 15.1728 8.4868C14.9632 8.72573 14.728 9.09627 14.6039 9.3352C15.5214 10.7725 17.6372 10.2195 18.67 9.54333C19.1558 9.22507 19.5963 8.86713 19.9799 8.48307H20.461V9.41547C18.7647 9.67633 17.4604 11.1454 17.4604 12.9141C17.4604 12.9925 17.4641 13.0695 17.4688 13.1465H16.8616V15.4028C11.3629 17.1542 7.38037 22.3015 7.38037 28.3813C7.38084 35.903 13.4778 42 21 42C28.5218 42 34.6192 35.903 34.6192 28.3808C34.6192 22.3011 30.6358 17.1533 25.138 15.4019ZM12.2864 29.4966L10.8813 29.5834C10.8762 29.5078 10.7712 27.6976 11.3008 25.62C12.0242 22.7817 13.5908 20.8171 15.8312 19.9379L16.3455 21.2483C11.9453 22.9745 12.2822 29.4313 12.2864 29.4966ZM22.4056 13.1455H19.5949C19.5823 13.0699 19.5744 12.9925 19.5744 12.9131C19.5744 12.1263 20.2142 11.4865 21.0005 11.4865C21.7868 11.4865 22.4266 12.1268 22.4266 12.9131C22.4257 12.9925 22.4182 13.0699 22.4056 13.1455Z" fill="white"/>
</svg>

<svg width="42" height="42" fill="none" xmlns="http://www.w3.org/2000/svg"><path d="M25.138 15.402v-2.256h-.608a3.545 3.545 0 0 0-2.991-3.731v-.933h.48c.384.384.825.744 1.31 1.06 1.032.676 3.149 1.23 4.067-.207a4.89 4.89 0 0 0-.57-.85c-.094.3-1.786 1.61-4.626-1.408 0 0 4.349-.952 5.378 1.874.101-.416.266-.876.427-1.328.246-.684.499-1.391.56-2.029.104-1.102-.424-1.646-.885-1.908a2.302 2.302 0 0 0-1.153-.284c-.963 0-2.19.473-3.646 1.407-.542.346-1.01.69-1.342.946V0h-1.078v5.755c-.332-.255-.801-.599-1.343-.946-1.456-.933-2.683-1.407-3.646-1.407-.435 0-.822.096-1.154.284-.46.262-.988.807-.884 1.908.061.638.314 1.345.56 2.03.162.451.327.912.427 1.328C15.45 6.125 19.8 7.077 19.8 7.077c-2.84 3.018-4.531 1.708-4.626 1.41-.21.239-.445.61-.57.848.918 1.438 3.034.884 4.067.208a8.22 8.22 0 0 0 1.31-1.06h.481v.932a3.546 3.546 0 0 0-2.992 3.732h-.607v2.256c-5.5 1.751-9.482 6.899-9.482 12.978C7.38 35.903 13.478 42 21 42c7.522 0 13.62-6.097 13.62-13.62 0-6.079-3.984-11.227-9.482-12.978ZM12.286 29.497l-1.405.086c-.005-.075-.11-1.885.42-3.963.723-2.838 2.29-4.803 4.53-5.682l.515 1.31c-4.4 1.726-4.064 8.183-4.06 8.249Zm10.12-16.352h-2.811A1.428 1.428 0 0 1 21 11.486a1.428 1.428 0 0 1 1.405 1.66Z" fill="#fff"/></svg>
